X:12060
T:Northern Frisk. BF11.57
M:4/4
Q:160
C:In hand "B"
S:MS11,c1850.,Browne Coll.,Lakes
R:Reel
O:England
A:Lakes
N:In a different hand.See 70..CGP
Z:vmp.Chris Partington
K:D
f/e/|fddA B/c/d dA|BGdF E/E/E Ee|fddA B/c/d dB|AFdF D/D/D D::!
D/E/|FDdD FDBD|FDdF E/E/E EG|FDdD FDBD|BdAF D/D/D Dd/e/|!
fdaf ecAc|dAdF E/E/E Ee|fdgf ecAc|BdAF D/D/D D|]
